X: 2222
T: GREEN FIELDS OF ERIN
Q: "Irish Reel."
R: Reel.
%R: reel
N: This is version 2, for ABC software that understands voice overlays.
B: James Kerr "Merry Melodies" v.2 p.25 #222
Z: 2016 John Chambers <jc:trillian.mit.edu>
M: C
L: 1/8
K: Ador
|:\
vA2(^cA) eAcA | BGBd gedB |\
A2(^cA) eAcA | BGEF GAB"^2nd"d & x4 GAB"_1st"G :|\
(ea)(ag) (ea)(ag) | (ef)(gf) (ef)(gf) |
(ea)(ag) (ea)(ag) | egfa gedB |\
eaab c'abg | egfa gfge |\
dega bgaf | e(gf)(a g)edB |]
